X: 4812
T: The Lime Hill
C: Dan R. MacDonald
O: Cape Breton, Nova Scotia
N: Tune for the dance Rougemont Castle.
Z: 2006, 2015 John Chambers <jc:trillian.mit.edu>
B: RSCDS 48-12
B: Exeter Branch 40 #14
R: strathspey
M: 4/4
L: 1/8
K: A
a |\
"A"e<c c>B "D"A<F F>A | "A"E<C E>F "C#/A"A2 A>B |\
"A"c>B c>e "D"f>e f<a | "C#/A"e<c "F#m"c>A "Bm"B2 "E7"B<a |
"A"e<c c>B "D"A<F F>A | "A"E<C E>F "C#/A"A2 A>B |\
"A"c>B c<e "D"f>e f>a | "C#/A"e<c "B/E7"B>c "A"A2 A ||
B |\
"A"c<e e>f "C#/A"e<c a>e | "A"c<e e>f "C#/A"e2 e>a |\
"F#m"c<f f>a "C#m"f>e a/2g/2f/2e/2 | "F#m"c<f f>g "D"f2 f<a |
"A"c<e e>f "C#/A"e<c a>e | "A"c<e e>f "C#/A"e2 (3(efg) |\
"A"(3agf (3edc "D"(3dfd "C#/A"(3cac | "B/E7"B<E G>B "A"A2 A |]
%%center Book48/4812-Lime_Hill-A-16-4.abc

%%sep 1 1 500
%%sep 1 1 500

